build/img/svg/extra-img-1.svg

<svg width="16" height="16" viewBox="0 0 16 16" fill="none" xmlns="http://www.w3.org/2000/svg">
<path fill-rule="evenodd" clip-rule="evenodd" d="M8.37292 0C8.43752 0 8.48989 0.0523801 8.48989 0.116913V0.239364C8.48989 0.303897 8.43752 0.356277 8.37292 0.356277H8.23866V0.750704C12.3393 0.876693 15.625 4.24071 15.625 8.37297C15.625 12.5856 12.2114 16 8.00042 16C3.78941 16 0.375 12.5856 0.375 8.37297C0.375 4.24102 3.66099 0.877078 7.76134 0.750781V0.356277H7.62708C7.56248 0.356277 7.51019 0.303897 7.51019 0.239364V0.116913C7.51019 0.0523801 7.56248 0 7.62708 0H8.37292ZM8.19106 1.75062V2.41987C8.19106 2.5254 8.10554 2.61093 8.00004 2.61093C7.89453 2.61093 7.80894 2.5254 7.80894 2.41987V1.75062C4.30164 1.85038 1.47812 4.67406 1.37877 8.18221H2.04787C2.15338 8.18221 2.23897 8.26775 2.23897 8.37328C2.23897 8.47888 2.15338 8.56441 2.04787 8.56441H1.37877C1.47858 12.0723 4.30187 14.8962 7.80894 14.996V14.3268C7.80894 14.2212 7.89453 14.1356 8.00004 14.1356C8.10554 14.1356 8.19106 14.2212 8.19106 14.3268V14.996C11.6984 14.8966 14.5214 12.0725 14.6212 8.56441H13.9521C13.8466 8.56441 13.7611 8.47888 13.7611 8.37328C13.7611 8.26775 13.8466 8.18221 13.9521 8.18221H14.6212C14.5219 4.67375 11.6987 1.84999 8.19106 1.75062ZM7.99999 8.01702C8.1967 8.01702 8.35619 8.17655 8.35619 8.3733C8.35619 8.3936 8.3535 8.41314 8.35027 8.43245L10.6161 10.4819C10.6742 10.5345 10.7162 10.6026 10.7371 10.6782L10.7677 10.7894C10.7827 10.8435 10.7363 10.8948 10.681 10.8854L10.5672 10.866C10.4899 10.8529 10.418 10.8179 10.3598 10.7653L8.09358 8.7155C8.06359 8.72381 8.0326 8.72958 7.99999 8.72958C7.80336 8.72958 7.64379 8.57005 7.64379 8.3733C7.64379 8.17655 7.80336 8.01702 7.99999 8.01702Z" fill="white"/>
</svg>

<svg width="16" height="16" fill="none" xmlns="http://www.w3.org/2000/svg"><path fill-rule="evenodd" clip-rule="evenodd" d="M8.373 0c.065 0 .117.052.117.117v.122a.117.117 0 01-.117.117h-.134v.395a7.625 7.625 0 017.386 7.622 7.626 7.626 0 11-15.25 0A7.626 7.626 0 017.761.751V.356h-.134A.117.117 0 017.51.24V.117c0-.065.052-.117.117-.117h.746zM8.19 1.75v.67a.191.191 0 11-.382 0v-.67a6.624 6.624 0 00-6.43 6.432h.669a.191.191 0 010 .382h-.67a6.625 6.625 0 006.43 6.432v-.67a.191.191 0 11.383 0v.67a6.624 6.624 0 006.43-6.432h-.669a.191.191 0 010-.382h.67a6.623 6.623 0 00-6.43-6.431zM8 8.018a.356.356 0 01.35.415l2.266 2.05c.058.053.1.12.121.196l.03.111a.077.077 0 01-.086.096l-.114-.019a.412.412 0 01-.207-.1l-2.266-2.05A.356.356 0 118 8.018z" fill="#fff"/></svg>
